public/images/logo-dark.svg

<svg fill="none" height="22" viewBox="0 0 106 22" width="106" xmlns="http://www.w3.org/2000/svg" xmlns:xlink="http://www.w3.org/1999/xlink"><clipPath id="a"><path d="m0 2h27v19h-27z"/></clipPath><g fill="#fefefe"><g clip-path="url(#a)"><path clip-rule="evenodd" d="m10.5619 17.5597c.1268.0747.2635.1495.4002.2155 1.0181.4861 1.4909.8054 1.4909 1.4787 0 .7212-.5728 1.3112-1.2731 1.3112-.5454 0-.9999-.3556-1.18163-.8519-.33733.3558-.74041.6385-1.18546.8314-.44507.1929-.92311.2921-1.40598.2918-.47749 0-.95032-.0969-1.39145-.2851-.44115-.1882-.84198-.464-1.17957-.8117-.33762-.3478-.6054-.7606-.78807-1.2149-.18267-.4544-.27663-.9413-.27655-1.433 0-.1967.02679-.3933.05425-.5899-1.86432-.5616-3.300239-2.1623-3.627869-4.1663-.045092-.2903-.072571-.5805-.072571-.8802 0-.2996.027479-.5899.072571-.8801.336789-1.99393 1.763549-3.60473 3.627869-4.16633l-.00351-.02468c-.02607-.1872-.05144-.36786-.05144-.56522-.00009-.4918.0939-.9788.27661-1.43318.18272-.45437.45057-.86722.78824-1.21497.3377-.34775.7386-.62359 1.1798-.81174.44123-.18816.91414-.28496 1.39169-.28486 1.00966 0 1.92772.431 2.59144 1.12321.08903-.24919.24993-.46437.46113-.61664.2112-.15228.4626-.23435.7205-.2352.7003 0 1.2731.5899 1.2731 1.31113 0 .72993-.4728 1.04847-1.4909 1.53533-.1001.04914-.1988.10142-.2959.15674l-.1043.05804c-.0817.04716-.1634.09432-.2367.14076-.0634.03774-.1177.07474-.1726.11248-.0173.00954-.0338.02046-.0493.03264-.0161.01226-.033.02318-.0508.03266-.30858.20606-.59041.44986-.86379.70236-.00849.00496-.0161.01134-.02255.01886-.00705.00726-.01408.01452-.02255.01888-.10921.11174-.21841.22492-.31847.33666l-.04086.04716c-.01339.01598-.02677.03266-.04087.04644-.04293.05482-.08662.109-.13104.16254-.06836.08272-.13529.1647-.19588.2496-.88173 1.2031-1.36041 2.66844-1.36406 4.17573-.00062 1.508.4785 2.9747 1.36406 4.1758.11292.1608.23578.314.36779.4585.0141.016.02748.0327.04086.0465.07539.0914.15501.1719.23603.2539l.08244.0835c.00849.0049.0161.0113.02255.0188.00705.0073.01408.0138.02255.0189.26946.2571.5583.4917.86379.7017.0183.0094.0346.0217.0501.0326.0157.0125.0325.0236.05.0334l.0866.0558.086.0559.1184.0704c.0387.0232.0775.0472.1183.0704zm12.6366-11.11311c1.8643.56162 3.3004 2.16226 3.6279 4.16631.0963.6013.0963 1.2148 0 1.8162-.3368 1.9939-1.7636 3.6047-3.6279 4.1663l.0035.0246c.0262.1872.0515.3679.0515.5653.0002.4918-.0939.9789-.2766 1.4333-.1828.4544-.4507.8673-.7885 1.2151-.3378.3477-.7387.6235-1.18.8117-.4413.1881-.9143.2848-1.392.2846-.4825-.0007-.9602-.1004-1.405-.2932s-.8479-.475-1.1857-.83c-.089.2492-.2499.4644-.4611.6167-.2112.1522-.4626.2343-.7204.2351-.3373-.0009-.6605-.1392-.899-.3848-.2386-.2455-.3731-.5782-.3742-.9255 0-.7307.4727-1.0493 1.4909-1.5361.1007-.0479.1973-.1016.2959-.1568l.1043-.058c.0817-.0472.1634-.0943.2367-.1408.0634-.0377.1177-.0747.1726-.1124.0173-.0096.0338-.0205.0494-.0327.016-.0122.033-.0232.0507-.0326.3055-.2102.5944-.4451.8638-.7024.0085-.0049.0161-.0113.0225-.0189.0071-.0072.0141-.0137.0226-.0181.1092-.1125.2184-.2249.3185-.3374l.0408-.0464c.0134-.0167.0268-.0334.0409-.0472.0423-.0552.0874-.1088.131-.1625.0684-.0828.1353-.164.1959-.2496.8456-1.161 1.364-2.6121 1.364-4.1758.0006-1.5077-.4786-2.97417-1.364-4.17501-.1129-.16106-.2357-.31448-.3678-.45928-.0141-.01598-.0275-.03266-.0408-.04644-.0992-.11926-.2056-.23196-.3185-.3374-.0085-.00498-.0161-.01136-.0226-.01886-.0065-.00728-.0141-.0134-.0225-.01814-.2718-.2545-.5604-.48918-.8638-.70238-.0175-.0095-.0342-.02042-.05-.03264-.0162-.01162-.0317-.02322-.0501-.03266-.0275-.01886-.0563-.03772-.0866-.0566-.029-.01808-.0577-.0367-.086-.05586l-.1184-.07038c-.1675-.10466-.3404-.2001-.5178-.28588-1.0097-.49558-1.4916-.81412-1.4916-1.53534 0-.72051.5728-1.31041 1.2732-1.31041.5453 0 .9998.35554 1.1815.85184.3374-.35581.7404-.63849 1.1855-.83139s.9231-.29212 1.406-.29182c.4775 0 .9502.09687 1.3914.28507.4411.1882.842.46404 1.1796.81178.3376.34775.6055.76057.7881 1.21489.1826.45434.2766.94128.2766 1.433 0 .19592-.0268.39328-.0544.5899z" fill-rule="evenodd"/><path d="m17.4819 11.4955c.0003-.5361-.1021-1.0671-.3012-1.56242-.1991-.49536-.4911-.94544-.8592-1.3245-.3682-.37906-.8053-.67966-1.2863-.88464-.4811-.20496-.9966-.31026-1.5173-.30988-.5206-.00028-1.0361.1051-1.5171.31016s-.9181.50574-1.2862.88488c-.3681.37912-.66.82926-.85899 1.32464-.19904.49536-.30129 1.02636-.30092 1.56246-.00027.5361.10204 1.0669.30112 1.5622.19909.4953.49099.9454.85909 1.3244.3681.3791.8051.6797 1.286.8847.481.205.9965.3104 1.517.3101.5207.0004 1.0362-.1049 1.5173-.3099.481-.2049.9181-.5055 1.2863-.8846.3681-.3791.6601-.8291.8592-1.3245s.3015-1.0263.3012-1.5624z"/></g><path d="m96.1797 19.875v-12.25h2.875v1.75h.125s1.2503-2 3.5003-2h.5v3.125s-.375-.125-1-.125c-1.75 0-3.1253 1.375-3.1253 3.5v6z"/><path d="m88.9219 20.125c-3.625 0-6.5-2.875-6.5-6.375s2.875-6.375 6.375-6.375 6 2.75 6 6.125c0 .75-.125 1.375-.125 1.375h-9.125c.3 1.375 1.5 2.625 3.5 2.625 2.125 0 3.375-1.525 3.375-1.525l1.625 2.025s-1.625 2.125-5.125 2.125zm-3.375-7.625h6.125c-.375-1.375-1.375-2.375-3-2.375-1.75 0-2.75 1-3.125 2.375z"/><path d="m79.7812 20.125c-2.375 0-3.875-1.5-3.875-4.25v-5.25h-2.25v-2.75h1.25c.8751 0 1.25-.375 1.25-1.375v-2.5h2.625v3.875h2.75v2.75h-2.75v4.875c0 1.25.6251 1.875 1.625 1.875.75 0 1.5-.35 1.5-.35v2.725s-.8749.375-2.125.375z"/><path d="m65.7812 19.875v-12.25h2.875v1.75h.125s1.25-2 3.5-2h.5v3.125s-.3749-.125-1-.125c-1.7499 0-3.125 1.375-3.125 3.5v6z"/><path d="m57.8984 20.125c-2.375 0-4-1.625-4-3.5 0-2 1.5-3.5 3.625-3.875l4.125-.75c0-.875-1-1.875-2.375-1.875-1.825 0-3 1.5-3 1.5l-1.75-1.75s1.75-2.5 4.875-2.5c3 0 5.125 2.2 5.125 4.875v7.625h-2.875v-1.625h-.125s-1.125 1.875-3.625 1.875zm.75-2.375c1.625 0 3-1.375 3-3.125v-.375l-2.875.5c-1.5.275-2 .75-2 1.5s.75 1.5 1.875 1.5z"/><path d="m50.2578 20.125c-2.375 0-3.875-1.5-3.875-4.25v-5.25h-2.25v-2.75h1.25c.875 0 1.25-.375 1.25-1.375v-2.5h2.625v3.875h2.75v2.75h-2.75v4.875c0 1.25.625 1.875 1.625 1.875.75 0 1.5-.35 1.5-.35v2.725s-.875.375-2.125.375z"/><path d="m37.5 20.25c-4.375 0-6.5-2.75-6.5-2.75l2.125-2.125s1.5 2 4.375 2c2 0 3.125-1.125 3.125-2.375 0-3.5-9-1.625-9-8 0-2.625 2.375-5 6.125-5s5.625 2.375 5.625 2.375l-2.125 2.125s-1.25-1.625-3.5-1.625c-1.875 0-2.875 1-2.875 2.125 0 3.5 9 1.625 9 8 0 2.75-2.5 5.25-6.375 5.25z"/></g></svg>

<svg width="106" height="22" viewBox="0 0 106 22" fill="none" xmlns="http://www.w3.org/2000/svg">
<g clip-path="url(#clip0_4185_1581)">
<path fill-rule="evenodd" clip-rule="evenodd" d="M10.5619 17.5597C10.6887 17.6344 10.8254 17.7092 10.9621 17.7752C11.9802 18.2613 12.453 18.5806 12.453 19.2539C12.453 19.9751 11.8802 20.5651 11.1799 20.5651C10.6345 20.5651 10.18 20.2095 9.99827 19.7132C9.66094 20.069 9.25786 20.3517 8.81281 20.5446C8.36774 20.7375 7.8897 20.8367 7.40683 20.8364C6.92934 20.8364 6.45651 20.7395 6.01538 20.5513C5.57423 20.3631 5.1734 20.0873 4.83581 19.7396C4.49819 19.3918 4.23041 18.979 4.04774 18.5247C3.86507 18.0703 3.77111 17.5834 3.77119 17.0917C3.77119 16.895 3.79798 16.6984 3.82544 16.5018C1.96112 15.9402 0.525201 14.3395 0.197571 12.3355C0.152479 12.0452 0.125 11.755 0.125 11.4553C0.125 11.1557 0.152479 10.8654 0.197571 10.5752C0.53436 8.58127 1.96112 6.97047 3.82544 6.40887L3.82193 6.38419C3.79586 6.19699 3.77049 6.01633 3.77049 5.81897C3.7704 5.32717 3.86439 4.84017 4.0471 4.38579C4.22982 3.93142 4.49767 3.51857 4.83534 3.17082C5.17304 2.82307 5.57394 2.54723 6.01514 2.35908C6.45637 2.17092 6.92928 2.07412 7.40683 2.07422C8.41649 2.07422 9.33455 2.50522 9.99827 3.19743C10.0873 2.94824 10.2482 2.73306 10.4594 2.58079C10.6706 2.42851 10.922 2.34644 11.1799 2.34559C11.8802 2.34559 12.453 2.93549 12.453 3.65672C12.453 4.38665 11.9802 4.70519 10.9621 5.19205C10.862 5.24119 10.7633 5.29347 10.6662 5.34879L10.5619 5.40683C10.4802 5.45399 10.3985 5.50115 10.3252 5.54759C10.2618 5.58533 10.2075 5.62233 10.1526 5.66007C10.1353 5.66961 10.1188 5.68053 10.1033 5.69271C10.0872 5.70497 10.0703 5.71589 10.0525 5.72537C9.74392 5.93143 9.46209 6.17523 9.18871 6.42773C9.18022 6.43269 9.17261 6.43907 9.16616 6.44659C9.15911 6.45385 9.15208 6.46111 9.14361 6.46547C9.0344 6.57721 8.9252 6.69039 8.82514 6.80213L8.78428 6.84929C8.77089 6.86527 8.75751 6.88195 8.74341 6.89573C8.70048 6.95055 8.65679 7.00473 8.61237 7.05827C8.54401 7.14099 8.47708 7.22297 8.41649 7.30787C7.53476 8.51097 7.05608 9.97631 7.05243 11.4836C7.05181 12.9916 7.53093 14.4583 8.41649 15.6594C8.52941 15.8202 8.65227 15.9734 8.78428 16.1179C8.79838 16.1339 8.81176 16.1506 8.82514 16.1644C8.90053 16.2558 8.98015 16.3363 9.06117 16.4183L9.14361 16.5018C9.1521 16.5067 9.15971 16.5131 9.16616 16.5206C9.17321 16.5279 9.18024 16.5344 9.18871 16.5395C9.45817 16.7966 9.74701 17.0312 10.0525 17.2412C10.0708 17.2506 10.0871 17.2629 10.1026 17.2738C10.1183 17.2863 10.1351 17.2974 10.1526 17.3072L10.2392 17.363L10.3252 17.4189L10.4436 17.4893C10.4823 17.5125 10.5211 17.5365 10.5619 17.5597ZM23.1985 6.44659C25.0628 7.00821 26.4989 8.60885 26.8264 10.6129C26.9227 11.2142 26.9227 11.8277 26.8264 12.4291C26.4896 14.423 25.0628 16.0338 23.1985 16.5954L23.202 16.62C23.2282 16.8072 23.2535 16.9879 23.2535 17.1853C23.2537 17.6771 23.1596 18.1642 22.9769 18.6186C22.7941 19.073 22.5262 19.4859 22.1884 19.8337C21.8506 20.1814 21.4497 20.4572 21.0084 20.6454C20.5671 20.8335 20.0941 20.9302 19.6164 20.93C19.1339 20.9293 18.6562 20.8296 18.2114 20.6368C17.7666 20.444 17.3635 20.1618 17.0257 19.8068C16.9367 20.056 16.7758 20.2712 16.5646 20.4235C16.3534 20.5757 16.102 20.6578 15.8442 20.6586C15.5069 20.6577 15.1837 20.5194 14.9452 20.2738C14.7066 20.0283 14.5721 19.6956 14.571 19.3483C14.571 18.6176 15.0437 18.299 16.0619 17.8122C16.1626 17.7643 16.2592 17.7106 16.3578 17.6554L16.4621 17.5974C16.5438 17.5502 16.6255 17.5031 16.6988 17.4566C16.7622 17.4189 16.8165 17.3819 16.8714 17.3442C16.8887 17.3346 16.9052 17.3237 16.9208 17.3115C16.9368 17.2993 16.9538 17.2883 16.9715 17.2789C17.277 17.0687 17.5659 16.8338 17.8353 16.5765C17.8438 16.5716 17.8514 16.5652 17.8578 16.5576C17.8649 16.5504 17.8719 16.5439 17.8804 16.5395C17.9896 16.427 18.0988 16.3146 18.1989 16.2021L18.2397 16.1557C18.2531 16.139 18.2665 16.1223 18.2806 16.1085C18.3229 16.0533 18.368 15.9997 18.4116 15.946C18.48 15.8632 18.5469 15.782 18.6075 15.6964C19.4531 14.5354 19.9715 13.0843 19.9715 11.5206C19.9721 10.0129 19.4929 8.54643 18.6075 7.34559C18.4946 7.18453 18.3718 7.03111 18.2397 6.88631C18.2256 6.87033 18.2122 6.85365 18.1989 6.83987C18.0997 6.72061 17.9933 6.60791 17.8804 6.50247C17.8719 6.49749 17.8643 6.49111 17.8578 6.48361C17.8513 6.47633 17.8437 6.47021 17.8353 6.46547C17.5635 6.21097 17.2749 5.97629 16.9715 5.76309C16.954 5.75359 16.9373 5.74267 16.9215 5.73045C16.9053 5.71883 16.8898 5.70723 16.8714 5.69779C16.8439 5.67893 16.8151 5.66007 16.7848 5.64119C16.7558 5.62311 16.7271 5.60449 16.6988 5.58533L16.5804 5.51495C16.4129 5.41029 16.24 5.31485 16.0626 5.22907C15.0529 4.73349 14.571 4.41495 14.571 3.69373C14.571 2.97322 15.1438 2.38332 15.8442 2.38332C16.3895 2.38332 16.844 2.73886 17.0257 3.23516C17.3631 2.87935 17.7661 2.59667 18.2112 2.40377C18.6563 2.21087 19.1343 2.11165 19.6172 2.11195C20.0947 2.11195 20.5674 2.20882 21.0086 2.39702C21.4497 2.58522 21.8506 2.86106 22.1882 3.2088C22.5258 3.55655 22.7937 3.96937 22.9763 4.42369C23.1589 4.87803 23.2529 5.36497 23.2529 5.85669C23.2529 6.05261 23.2261 6.24997 23.1985 6.44659Z" fill="#FEFEFE"/>
<path d="M17.4819 11.4955C17.4822 10.9594 17.3798 10.4284 17.1807 9.93308C16.9816 9.43772 16.6896 8.98764 16.3215 8.60858C15.9533 8.22952 15.5162 7.92892 15.0352 7.72394C14.5541 7.51898 14.0386 7.41368 13.5179 7.41406C12.9973 7.41378 12.4818 7.51916 12.0008 7.72422C11.5198 7.92928 11.0827 8.22996 10.7146 8.6091C10.3465 8.98822 10.0546 9.43836 9.85561 9.93374C9.65657 10.4291 9.55432 10.9601 9.55469 11.4962C9.55442 12.0323 9.65673 12.5631 9.85581 13.0584C10.0549 13.5537 10.3468 14.0038 10.7149 14.3828C11.083 14.7619 11.52 15.0625 12.0009 15.2675C12.4819 15.4725 12.9974 15.5779 13.5179 15.5776C14.0386 15.578 14.5541 15.4727 15.0352 15.2677C15.5162 15.0628 15.9533 14.7622 16.3215 14.3831C16.6896 14.004 16.9816 13.554 17.1807 13.0586C17.3798 12.5632 17.4822 12.0323 17.4819 11.4962V11.4955Z" fill="#FEFEFE"/>
</g>
<path d="M96.1797 19.875V7.625H99.0547V9.375H99.1797C99.1797 9.375 100.43 7.375 102.68 7.375H103.18V10.5C103.18 10.5 102.805 10.375 102.18 10.375C100.43 10.375 99.0547 11.75 99.0547 13.875V19.875H96.1797Z" fill="#FEFEFE"/>
<path d="M88.9219 20.125C85.2969 20.125 82.4219 17.25 82.4219 13.75C82.4219 10.25 85.2969 7.375 88.7969 7.375C92.2969 7.375 94.7969 10.125 94.7969 13.5C94.7969 14.25 94.6719 14.875 94.6719 14.875H85.5469C85.8469 16.25 87.0469 17.5 89.0469 17.5C91.1719 17.5 92.4219 15.975 92.4219 15.975L94.0469 18C94.0469 18 92.4219 20.125 88.9219 20.125ZM85.5469 12.5H91.6719C91.2969 11.125 90.2969 10.125 88.6719 10.125C86.9219 10.125 85.9219 11.125 85.5469 12.5Z" fill="#FEFEFE"/>
<path d="M79.7812 20.125C77.4062 20.125 75.9062 18.625 75.9062 15.875V10.625H73.6562V7.875H74.9062C75.7813 7.875 76.1562 7.5 76.1562 6.5V4H78.7812V7.875H81.5312V10.625H78.7812V15.5C78.7812 16.75 79.4063 17.375 80.4062 17.375C81.1562 17.375 81.9062 17.025 81.9062 17.025V19.75C81.9062 19.75 81.0313 20.125 79.7812 20.125Z" fill="#FEFEFE"/>
<path d="M65.7812 19.875V7.625H68.6562V9.375H68.7812C68.7812 9.375 70.0312 7.375 72.2812 7.375H72.7812V10.5C72.7812 10.5 72.4063 10.375 71.7812 10.375C70.0313 10.375 68.6562 11.75 68.6562 13.875V19.875H65.7812Z" fill="#FEFEFE"/>
<path d="M57.8984 20.125C55.5234 20.125 53.8984 18.5 53.8984 16.625C53.8984 14.625 55.3984 13.125 57.5234 12.75L61.6484 12C61.6484 11.125 60.6484 10.125 59.2734 10.125C57.4484 10.125 56.2734 11.625 56.2734 11.625L54.5234 9.875C54.5234 9.875 56.2734 7.375 59.3984 7.375C62.3984 7.375 64.5234 9.575 64.5234 12.25V19.875H61.6484V18.25H61.5234C61.5234 18.25 60.3984 20.125 57.8984 20.125ZM58.6484 17.75C60.2734 17.75 61.6484 16.375 61.6484 14.625V14.25L58.7734 14.75C57.2734 15.025 56.7734 15.5 56.7734 16.25C56.7734 17 57.5234 17.75 58.6484 17.75Z" fill="#FEFEFE"/>
<path d="M50.2578 20.125C47.8828 20.125 46.3828 18.625 46.3828 15.875V10.625H44.1328V7.875H45.3828C46.2578 7.875 46.6328 7.5 46.6328 6.5V4H49.2578V7.875H52.0078V10.625H49.2578V15.5C49.2578 16.75 49.8828 17.375 50.8828 17.375C51.6328 17.375 52.3828 17.025 52.3828 17.025V19.75C52.3828 19.75 51.5078 20.125 50.2578 20.125Z" fill="#FEFEFE"/>
<path d="M37.5 20.25C33.125 20.25 31 17.5 31 17.5L33.125 15.375C33.125 15.375 34.625 17.375 37.5 17.375C39.5 17.375 40.625 16.25 40.625 15C40.625 11.5 31.625 13.375 31.625 7C31.625 4.375 34 2 37.75 2C41.5 2 43.375 4.375 43.375 4.375L41.25 6.5C41.25 6.5 40 4.875 37.75 4.875C35.875 4.875 34.875 5.875 34.875 7C34.875 10.5 43.875 8.625 43.875 15C43.875 17.75 41.375 20.25 37.5 20.25Z" fill="#FEFEFE"/>
<defs>
<clipPath id="clip0_4185_1581">
<rect width="27" height="19" fill="white" transform="translate(0 2)"/>
</clipPath>
</defs>
</svg>
